svg/trapdoor2.svg

<?xml version="1.0" encoding="UTF-8" standalone="no"?>
<!-- Created with Inkscape (http://www.inkscape.org/) -->

<svg
   width="32"
   height="32"
   viewBox="0 0 8.4666666 8.4666668"
   version="1.1"
   id="svg5"
   inkscape:version="1.2 (dc2aeda, 2022-05-15)"
   sodipodi:docname="trapdoor2.svg"
   xmlns:inkscape="http://www.inkscape.org/namespaces/inkscape"
   xmlns:sodipodi="http://sodipodi.sourceforge.net/DTD/sodipodi-0.dtd"
   xmlns="http://www.w3.org/2000/svg"
   xmlns:svg="http://www.w3.org/2000/svg"
   xmlns:rdf="http://www.w3.org/1999/02/22-rdf-syntax-ns#"
   xmlns:cc="http://creativecommons.org/ns#">
  <sodipodi:namedview
     id="namedview7"
     pagecolor="#ffffff"
     bordercolor="#111111"
     borderopacity="1"
     inkscape:pageshadow="0"
     inkscape:pageopacity="0"
     inkscape:pagecheckerboard="1"
     inkscape:document-units="mm"
     showgrid="true"
     width="32mm"
     units="px"
     objecttolerance="10000"
     guidetolerance="10000"
     inkscape:snap-perpendicular="true"
     inkscape:snap-tangential="true"
     inkscape:zoom="34.90625"
     inkscape:cx="7.4485228"
     inkscape:cy="15.914056"
     inkscape:window-width="2560"
     inkscape:window-height="1301"
     inkscape:window-x="0"
     inkscape:window-y="25"
     inkscape:window-maximized="0"
     inkscape:current-layer="layer1"
     inkscape:showpageshadow="0"
     inkscape:deskcolor="#d1d1d1">
    <inkscape:grid
       type="xygrid"
       id="grid9"
       units="px"
       empspacing="2" />
  </sodipodi:namedview>
  <defs
     id="defs2" />
  <g
     inkscape:label="Layer 1"
     inkscape:groupmode="layer"
     id="layer1">
    <path
       id="rect301"
       style="fill:#000000;stroke-width:0"
       d="M 0 0 L 0 2.6458333 L 0 3.175 L 0 5.2916667 L 0 5.8208333 L 0 8.4666667 L 8.4666667 8.4666667 L 8.4666667 5.8208333 L 8.4666667 5.2916667 L 8.4666667 0 L 0 0 z M 3.96875 0.54001872 L 3.96875 2.6458333 L 0.88986816 2.6458333 A 3.7041667 3.7041667 0 0 1 3.96875 0.54001872 z M 4.4979167 0.54001872 A 3.7041667 3.7041667 0 0 1 7.5767985 2.6458333 L 4.4979167 2.6458333 L 4.4979167 0.54001872 z M 0.68677979 3.175 L 3.96875 3.175 L 3.96875 5.2916667 L 0.68677979 5.2916667 A 3.7041667 3.7041667 0 0 1 0.52916667 4.2333333 A 3.7041667 3.7041667 0 0 1 0.68677979 3.175 z M 4.4979167 3.175 L 7.7798869 3.175 A 3.7041667 3.7041667 0 0 1 7.9375 4.2333333 A 3.7041667 3.7041667 0 0 1 7.7798869 5.2916667 L 4.4979167 5.2916667 L 4.4979167 3.175 z M 0.88986816 5.8208333 L 3.96875 5.8208333 L 3.96875 7.9266479 A 3.7041667 3.7041667 0 0 1 0.88986816 5.8208333 z M 4.4979167 5.8208333 L 7.5767985 5.8208333 A 3.7041667 3.7041667 0 0 1 4.4979167 7.9266479 L 4.4979167 5.8208333 z " />
  </g>
  <metadata
     id="metadata33">
    <rdf:RDF>
      <cc:Work
         rdf:about="">
        <cc:license
           rdf:resource="http://creativecommons.org/licenses/by-sa/4.0/" />
      </cc:Work>
      <cc:License
         rdf:about="http://creativecommons.org/licenses/by-sa/4.0/">
        <cc:permits
           rdf:resource="http://creativecommons.org/ns#Reproduction" />
        <cc:permits
           rdf:resource="http://creativecommons.org/ns#Distribution" />
        <cc:requires
           rdf:resource="http://creativecommons.org/ns#Notice" />
        <cc:requires
           rdf:resource="http://creativecommons.org/ns#Attribution" />
        <cc:permits
           rdf:resource="http://creativecommons.org/ns#DerivativeWorks" />
        <cc:requires
           rdf:resource="http://creativecommons.org/ns#ShareAlike" />
      </cc:License>
    </rdf:RDF>
  </metadata>
</svg>

<svg width="32" height="32" viewBox="0 0 8.467 8.467" xmlns="http://www.w3.org/2000/svg"><path style="fill:#000;stroke-width:0" d="M0 0V8.467h8.467V0H0zm3.969.54v2.106H.889A3.704 3.704 0 0 1 3.97.54zm.529 0a3.704 3.704 0 0 1 3.079 2.106h-3.08V.54zM.687 3.175h3.282v2.117H.687a3.704 3.704 0 0 1-.158-1.059 3.704 3.704 0 0 1 .158-1.058zm3.81 0H7.78a3.704 3.704 0 0 1 .157 1.058 3.704 3.704 0 0 1-.157 1.059H4.498V3.175zM.89 5.821h3.079v2.106A3.704 3.704 0 0 1 .889 5.82zm3.608 0h3.079a3.704 3.704 0 0 1-3.08 2.106V5.82z"/></svg>
